assets/Cat with wry smile/Flat/cat_with_wry_smile_flat.svg

<svg width="32" height="32" viewBox="0 0 32 32" fill="none" xmlns="http://www.w3.org/2000/svg">
<path d="M4 25.942C4 28.1739 5.76327 30 7.91837 30H24.0816C26.2367 30 28 28.0725 28 25.8406V6.4297C28 5.1297 26.4099 4.5297 25.5155 5.4297L20.9736 10H11.1617L6.5 5.4297C5.6 4.5297 4 5.1297 4 6.4297V25.942Z" fill="#FFB02E"/>
<path d="M9.00005 10.9265L6.20005 13.5265C5.70005 14.0265 4.80005 13.6265 4.80005 12.9265V7.72648C4.80005 7.12648 5.70005 6.72648 6.20005 7.22648L9.00005 9.82648C9.30005 10.1265 9.30005 10.6265 9.00005 10.9265Z" fill="#FF822D"/>
<path d="M23.05 10.9265L25.85 13.5265C26.35 14.0265 27.25 13.6265 27.25 12.9265V7.72648C27.25 7.12648 26.35 6.72648 25.85 7.22648L23.05 9.82648C22.75 10.1265 22.75 10.6265 23.05 10.9265Z" fill="#FF822D"/>
<path d="M17.0429 20H14.9571C14.5117 20 14.2886 20.5386 14.6036 20.8536L15.6465 21.8964C15.8417 22.0917 16.1583 22.0917 16.3536 21.8964L17.3965 20.8536C17.7114 20.5386 17.4884 20 17.0429 20Z" fill="#F70A8D"/>
<path d="M2.72372 20.0528C2.47673 19.9293 2.17639 20.0294 2.0529 20.2764C1.9294 20.5234 2.02951 20.8237 2.2765 20.9472L6.2765 22.9472C6.52349 23.0707 6.82383 22.9706 6.94732 22.7236C7.07082 22.4766 6.97071 22.1763 6.72372 22.0528L2.72372 20.0528Z" fill="#FF6723"/>
<path d="M2.72372 26.9472C2.47673 27.0707 2.17639 26.9706 2.0529 26.7236C1.9294 26.4766 2.02951 26.1763 2.2765 26.0528L6.2765 24.0528C6.52349 23.9293 6.82383 24.0294 6.94732 24.2764C7.07082 24.5234 6.97071 24.8237 6.72372 24.9472L2.72372 26.9472Z" fill="#FF6723"/>
<path d="M29.9473 20.2764C29.8238 20.0294 29.5235 19.9293 29.2765 20.0528L25.2765 22.0528C25.0295 22.1763 24.9294 22.4766 25.0529 22.7236C25.1764 22.9706 25.4767 23.0707 25.7237 22.9472L29.7237 20.9472C29.9707 20.8237 30.0708 20.5234 29.9473 20.2764Z" fill="#FF6723"/>
<path d="M29.2765 26.9472C29.5235 27.0707 29.8238 26.9706 29.9473 26.7236C30.0708 26.4766 29.9707 26.1763 29.7237 26.0528L25.7237 24.0528C25.4767 23.9293 25.1764 24.0294 25.0529 24.2764C24.9294 24.5234 25.0295 24.8237 25.2765 24.9472L29.2765 26.9472Z" fill="#FF6723"/>
<path d="M9.9472 15.2764C9.82371 15.0294 9.52337 14.9293 9.27638 15.0528C9.02939 15.1763 8.92928 15.4766 9.05277 15.7236C9.24843 16.1149 9.64118 16.6721 10.208 17.1367C10.2524 17.1731 10.2981 17.209 10.3449 17.2444C10.1336 17.4277 9.99999 17.6983 9.99999 18V19C9.99999 19.5523 10.4477 20 11 20C11.5523 20 12 19.5523 12 19V18C12 17.9874 11.9998 17.9749 11.9993 17.9624C12.1604 17.9868 12.3273 18 12.5 18C12.7761 18 13 17.7761 13 17.5C13 17.2238 12.7761 17 12.5 17C11.8459 17 11.2876 16.7286 10.842 16.3633C10.3921 15.9946 10.0849 15.5517 9.9472 15.2764Z" fill="#402A32"/>
<path d="M20 18C20 17.9874 20.0002 17.9749 20.0007 17.9624C19.8396 17.9868 19.6726 18 19.5 18C19.2238 18 19 17.7761 19 17.5C19 17.2238 19.2238 17 19.5 17C20.154 17 20.7124 16.7286 21.158 16.3633C21.6078 15.9946 21.9151 15.5517 22.0528 15.2764C22.1763 15.0294 22.4766 14.9293 22.7236 15.0528C22.9706 15.1763 23.0707 15.4766 22.9472 15.7236C22.7515 16.1149 22.3588 16.6721 21.792 17.1367C21.7475 17.1731 21.7019 17.209 21.6551 17.2444C21.8664 17.4277 22 17.6983 22 18V19C22 19.5523 21.5523 20 21 20C20.4477 20 20 19.5523 20 19V18Z" fill="#402A32"/>
<path d="M22.5001 22C22.7763 22 23.0001 22.2239 23.0001 22.5C23.0001 24.0685 22.2925 25.2064 21.375 25.9404C20.4739 26.6613 19.3637 27 18.5001 27C18.224 27 18.0001 26.7761 18.0001 26.5C18.0001 26.2239 18.224 26 18.5001 26C19.1365 26 20.0264 25.7387 20.7503 25.1596C21.4578 24.5936 22.0001 23.7315 22.0001 22.5C22.0001 22.2239 22.224 22 22.5001 22Z" fill="#402A32"/>
</svg>

<svg xmlns="http://www.w3.org/2000/svg" width="32" height="32" fill="none"><path fill="#FFB02E" d="M4 25.942C4 28.174 5.763 30 7.918 30h16.164C26.237 30 28 28.073 28 25.84V6.43c0-1.3-1.59-1.9-2.485-1L20.974 10h-9.812L6.5 5.43c-.9-.9-2.5-.3-2.5 1v19.512Z"/><path fill="#FF822D" d="m9 10.927-2.8 2.6c-.5.5-1.4.1-1.4-.6v-5.2c0-.6.9-1 1.4-.5l2.8 2.6c.3.3.3.8 0 1.1ZM23.05 10.927l2.8 2.6c.5.5 1.4.1 1.4-.6v-5.2c0-.6-.9-1-1.4-.5l-2.8 2.6c-.3.3-.3.8 0 1.1Z"/><path fill="#F70A8D" d="M17.043 20h-2.086a.5.5 0 0 0-.353.854l1.043 1.042a.5.5 0 0 0 .707 0l1.043-1.042a.5.5 0 0 0-.354-.854Z"/><path fill="#FF6723" d="M2.724 20.053a.5.5 0 1 0-.448.894l4 2a.5.5 0 1 0 .448-.894l-4-2ZM2.724 26.947a.5.5 0 1 1-.448-.894l4-2a.5.5 0 1 1 .448.894l-4 2ZM29.947 20.276a.5.5 0 0 0-.67-.223l-4 2a.5.5 0 1 0 .447.894l4-2a.5.5 0 0 0 .223-.67ZM29.276 26.947a.5.5 0 1 0 .448-.894l-4-2a.5.5 0 1 0-.448.894l4 2Z"/><path fill="#402A32" d="M9.947 15.276a.5.5 0 1 0-.894.448 4.589 4.589 0 0 0 1.292 1.52A.998.998 0 0 0 10 18v1a1 1 0 1 0 2 0v-1a.94.94 0 0 0 0-.038c.16.025.327.038.5.038a.5.5 0 0 0 0-1c-.654 0-1.212-.271-1.658-.637a3.597 3.597 0 0 1-.895-1.087ZM20 18a.94.94 0 0 1 0-.038 3.34 3.34 0 0 1-.5.038.5.5 0 1 1 0-1c.654 0 1.212-.271 1.658-.637.45-.368.757-.811.895-1.087a.5.5 0 1 1 .894.448 4.59 4.59 0 0 1-1.292 1.52A.998.998 0 0 1 22 18v1a1 1 0 1 1-2 0v-1ZM22.5 22a.5.5 0 0 1 .5.5c0 1.569-.707 2.706-1.625 3.44-.901.721-2.011 1.06-2.875 1.06a.5.5 0 0 1 0-1c.637 0 1.526-.261 2.25-.84.708-.566 1.25-1.428 1.25-2.66a.5.5 0 0 1 .5-.5Z"/></svg>
